common/svg/info-icon.svg

<svg fill="none" height="20" viewBox="0 0 20 20" width="20" xmlns="http://www.w3.org/2000/svg" xmlns:xlink="http://www.w3.org/1999/xlink"><clipPath id="a"><path d="m0 0h20v20h-20z"/></clipPath><g clip-path="url(#a)"><path d="m10.0001.999985c-4.97057 0-9.0001 4.029525-9.0001 9.000115 0 4.9704 4.02953 8.9999 9.0001 8.9999 4.9706 0 9.0001-4.0295 9.0001-8.9999 0-4.97059-4.0295-9.000115-9.0001-9.000115zm-.01134 4.063905c.20164-.21888.44734-.33012.72994-.33012.2291 0 .4307.08244.5821.2385.1523.15516.2295.3537.2295.58951 0 .29556-.1033.55836-.3069.78103-.2092.22968-.4538.3465-.7263.3465-.225 0-.4243-.08442-.5762-.24408-.15048-.15643-.22734-.36091-.22734-.60679 0-.30114.09936-.56179.2952-.77455zm1.49924 8.47931c-.7461.7017-1.2787 1.1391-1.62758 1.3378-.37224.2131-.67897.3172-.93727.3172-.25668 0-.46603-.0855-.62263-.2538-.15174-.1627-.2286-.3825-.2286-.6525 0-.6902.39096-2.2929 1.19575-4.89986.01368-.0441.0243-.08604.0315-.1251-.03006.01296-.0648.03132-.10512.05634-.06588.04158-.26658.19908-.85393.77292-.08964.0877-.22986.0958-.32904.0189l-.3474-.26873c-.05545-.04267-.09037-.10675-.09649-.17659-.00612-.06966.01729-.13878.06427-.19062.54126-.59599 1.04653-1.02871 1.50193-1.28611.47665-.26857.87971-.39925 1.23161-.39925.2275 0 .4113.05652.5466.16848.1473.12277.225.29323.225.49321 0 .13122-.0622.47304-.522 2.01481-.65662 2.2028-.81358 3.0024-.8242 3.279.1242-.0734.4181-.2822 1.0456-.8719.0978-.0925.2511-.0907.3471.0029l.308.3002c.0491.0479.0766.1136.0759.1822s-.0291.1336-.079.1805z" fill="#000"/></g></svg>

<svg width="20" height="20" viewBox="0 0 20 20" fill="none" xmlns="http://www.w3.org/2000/svg">
<g clip-path="url(#clip0)">
<path d="M10.0001 0.999985C5.02953 0.999985 1 5.02951 1 10.0001C1 14.9705 5.02953 19 10.0001 19C14.9707 19 19.0002 14.9705 19.0002 10.0001C19.0002 5.02951 14.9707 0.999985 10.0001 0.999985ZM9.98876 5.06389C10.1904 4.84501 10.4361 4.73377 10.7187 4.73377C10.9478 4.73377 11.1494 4.81621 11.3008 4.97227C11.4531 5.12743 11.5303 5.32597 11.5303 5.56178C11.5303 5.85734 11.427 6.12014 11.2234 6.34281C11.0142 6.57249 10.7696 6.68931 10.4971 6.68931C10.2721 6.68931 10.0728 6.60489 9.9209 6.44523C9.77042 6.2888 9.69356 6.08432 9.69356 5.83844C9.69356 5.5373 9.79292 5.27665 9.98876 5.06389ZM11.488 13.5432C10.7419 14.2449 10.2093 14.6823 9.86042 14.881C9.48818 15.0941 9.18145 15.1982 8.92315 15.1982C8.66647 15.1982 8.45712 15.1127 8.30052 14.9444C8.14878 14.7817 8.07192 14.5619 8.07192 14.2919C8.07192 13.6017 8.46288 11.999 9.26767 9.39204C9.28135 9.34794 9.29197 9.306 9.29917 9.26694C9.26911 9.2799 9.23437 9.29826 9.19405 9.32328C9.12817 9.36486 8.92747 9.52236 8.34012 10.0962C8.25048 10.1839 8.11026 10.192 8.01108 10.1151L7.66368 9.84637C7.60823 9.8037 7.57331 9.73962 7.56719 9.66978C7.56107 9.60012 7.58448 9.531 7.63146 9.47916C8.17272 8.88317 8.67799 8.45045 9.13339 8.19305C9.61004 7.92448 10.0131 7.7938 10.365 7.7938C10.5925 7.7938 10.7763 7.85032 10.9116 7.96228C11.0589 8.08505 11.1366 8.25551 11.1366 8.45549C11.1366 8.58671 11.0744 8.92853 10.6146 10.4703C9.95798 12.6731 9.80102 13.4727 9.7904 13.7493C9.9146 13.6759 10.2085 13.4671 10.836 12.8774C10.9338 12.7849 11.0871 12.7867 11.1831 12.8803L11.4911 13.1805C11.5402 13.2284 11.5677 13.2941 11.567 13.3627C11.5663 13.4313 11.5379 13.4963 11.488 13.5432Z" fill="black"/>
</g>
<defs>
<clipPath id="clip0">
<rect width="20" height="20" fill="white"/>
</clipPath>
</defs>
</svg>
